X:1
T:Rome, CM
T:Rome, CM
T:Anonymous, 1889
T:Public Domain Courtesy of the Cyber Hymnal™
C:Anonymous, 1889
Z:Public Domain
Z:Courtesy of the Cyber Hymnal™
%%score ( 1 2 ) ( 3 4 )
L:1/8
Q:1/4=108
M:4/4
K:E
V:1 treble 
V:2 treble 
V:3 bass 
V:4 bass 
V:1
 [EB]2 | [EG]2 ([DF]E) [EA]2 [EG]2 | c2 z [GB]2 (eB) x2 | c2 [GB]2 (BA) ([EG][FA]) | %4
 ([EG]4 [DF]2) [DF]2 | [EF]2 (GF) [DF]2 [FB]2 | [Fd]2 (cB) [Ee]2 [EB]2 | [EB]2 (EA) [EG]2 [DF]2 | %8
 E6 |] %9
V:2
 x2 | x3 E x4 | E3 (c2 A) x E2 | (EF) x D2 x3 | x8 | x2 E2 x4 | x2 F2 x4 | x2 E2 x4 | E6 |] %9
V:3
 [E,G,]2 | [E,B,]2 (A,G,) [E,C]2 [E,B,]2 | (A,B,) (CD) [E,E]2 (B,=D) x | %3
 (CD) [G,E]2 [F,B,]2 ([E,B,][A,,C]) | [B,,B,]6 B,2 | [^A,C]2 [A,C]2 [B,D]2 [B,D]2 | %6
 [A,B,]2 (ED) [G,E]2 [G,=D]2 | [A,C]2 [A,,C]2 [B,,B,]2 [B,,A,]2 | [E,G,]6 |] %9
V:4
 x2 | x2 E,2 x4 | E,2 E,2 x G,2 x2 | A,2 x6 | x6 B,2 | x8 | x2 A,2 x4 | x8 | x6 |] %9

